images/50571405.svg

<?xml version="1.0" encoding="UTF-8"?>
<svg xmlns="http://www.w3.org/2000/svg" xmlns:xlink="http://www.w3.org/1999/xlink" width="300pt" height="300pt" viewBox="0 0 300 300" version="1.1">
<defs>
<g>
<symbol overflow="visible" id="glyph0-0">
<path style="stroke:none;" d="M 0.59375 2.125 L 0.59375 -8.46875 L 6.59375 -8.46875 L 6.59375 2.125 Z M 1.265625 1.453125 L 5.9375 1.453125 L 5.9375 -7.78125 L 1.265625 -7.78125 Z M 1.265625 1.453125 "/>
</symbol>
<symbol overflow="visible" id="glyph0-1">
<path style="stroke:none;" d="M 7.734375 -8.078125 L 7.734375 -6.828125 C 7.328125 -7.203125 6.898438 -7.476562 6.453125 -7.65625 C 6.003906 -7.84375 5.523438 -7.9375 5.015625 -7.9375 C 4.015625 -7.9375 3.25 -7.628906 2.71875 -7.015625 C 2.1875 -6.398438 1.921875 -5.515625 1.921875 -4.359375 C 1.921875 -3.210938 2.1875 -2.332031 2.71875 -1.71875 C 3.25 -1.101562 4.015625 -0.796875 5.015625 -0.796875 C 5.523438 -0.796875 6.003906 -0.890625 6.453125 -1.078125 C 6.898438 -1.265625 7.328125 -1.539062 7.734375 -1.90625 L 7.734375 -0.671875 C 7.316406 -0.390625 6.875 -0.175781 6.40625 -0.03125 C 5.945312 0.101562 5.460938 0.171875 4.953125 0.171875 C 3.617188 0.171875 2.570312 -0.234375 1.8125 -1.046875 C 1.050781 -1.859375 0.671875 -2.960938 0.671875 -4.359375 C 0.671875 -5.765625 1.050781 -6.875 1.8125 -7.6875 C 2.570312 -8.5 3.617188 -8.90625 4.953125 -8.90625 C 5.472656 -8.90625 5.960938 -8.832031 6.421875 -8.6875 C 6.890625 -8.550781 7.328125 -8.347656 7.734375 -8.078125 Z M 7.734375 -8.078125 "/>
</symbol>
<symbol overflow="visible" id="glyph0-2">
<path style="stroke:none;" d="M 1.125 -9.125 L 2.203125 -9.125 L 2.203125 0 L 1.125 0 Z M 1.125 -9.125 "/>
</symbol>
<symbol overflow="visible" id="glyph0-3">
<path style="stroke:none;" d="M 4.734375 -7.953125 C 3.867188 -7.953125 3.179688 -7.628906 2.671875 -6.984375 C 2.171875 -6.347656 1.921875 -5.472656 1.921875 -4.359375 C 1.921875 -3.265625 2.171875 -2.394531 2.671875 -1.75 C 3.179688 -1.113281 3.867188 -0.796875 4.734375 -0.796875 C 5.585938 -0.796875 6.265625 -1.113281 6.765625 -1.75 C 7.273438 -2.394531 7.53125 -3.265625 7.53125 -4.359375 C 7.53125 -5.472656 7.273438 -6.347656 6.765625 -6.984375 C 6.265625 -7.628906 5.585938 -7.953125 4.734375 -7.953125 Z M 4.734375 -8.90625 C 5.953125 -8.90625 6.925781 -8.492188 7.65625 -7.671875 C 8.394531 -6.847656 8.765625 -5.742188 8.765625 -4.359375 C 8.765625 -2.984375 8.394531 -1.882812 7.65625 -1.0625 C 6.925781 -0.238281 5.953125 0.171875 4.734375 0.171875 C 3.503906 0.171875 2.519531 -0.238281 1.78125 -1.0625 C 1.039062 -1.882812 0.671875 -2.984375 0.671875 -4.359375 C 0.671875 -5.742188 1.039062 -6.847656 1.78125 -7.671875 C 2.519531 -8.492188 3.503906 -8.90625 4.734375 -8.90625 Z M 4.734375 -8.90625 "/>
</symbol>
<symbol overflow="visible" id="glyph0-4">
<path style="stroke:none;" d="M 1.171875 -8.75 L 2.765625 -8.75 L 6.65625 -1.4375 L 6.65625 -8.75 L 7.796875 -8.75 L 7.796875 0 L 6.203125 0 L 2.328125 -7.3125 L 2.328125 0 L 1.171875 0 Z M 1.171875 -8.75 "/>
</symbol>
<symbol overflow="visible" id="glyph0-5">
<path style="stroke:none;" d="M 1.171875 -8.75 L 2.359375 -8.75 L 2.359375 -5.15625 L 6.65625 -5.15625 L 6.65625 -8.75 L 7.84375 -8.75 L 7.84375 0 L 6.65625 0 L 6.65625 -4.171875 L 2.359375 -4.171875 L 2.359375 0 L 1.171875 0 Z M 1.171875 -8.75 "/>
</symbol>
</g>
</defs>
<g id="surface22969">
<rect x="0" y="0" width="300" height="300" style="fill:rgb(100%,100%,100%);fill-opacity:1;stroke:none;"/>
<path style="fill:none;stroke-width:1.2;stroke-linecap:butt;stroke-linejoin:miter;stroke:rgb(0%,80%,0%);stroke-opacity:1;stroke-miterlimit:10;" d="M 35.25 236.617188 L 46.472656 226.167969 "/>
<path style="fill:none;stroke-width:1.2;stroke-linecap:butt;stroke-linejoin:miter;stroke:rgb(0%,0%,0%);stroke-opacity:1;stroke-miterlimit:10;" d="M 46.472656 226.167969 L 57.695312 215.722656 "/>
<path style=" stroke:none;fill-rule:nonzero;fill:rgb(100%,100%,100%);fill-opacity:1;" d="M 23.25 229.617188 L 35.25 229.617188 L 35.25 243.617188 L 23.25 243.617188 Z M 23.25 229.617188 "/>
<g style="fill:rgb(0%,80%,0%);fill-opacity:1;">
  <use xlink:href="#glyph0-1" x="23.25" y="240.755859"/>
  <use xlink:href="#glyph0-2" x="31.628906" y="240.755859"/>
</g>
<path style="fill:none;stroke-width:1.2;stroke-linecap:butt;stroke-linejoin:miter;stroke:rgb(0%,0%,0%);stroke-opacity:1;stroke-miterlimit:10;" d="M 57.695312 215.722656 L 50.824219 185.835938 "/>
<path style="fill:none;stroke-width:1.2;stroke-linecap:butt;stroke-linejoin:miter;stroke:rgb(0%,0%,0%);stroke-opacity:1;stroke-miterlimit:10;" d="M 64.039062 211.117188 L 58.542969 187.207031 "/>
<path style="fill:none;stroke-width:1.2;stroke-linecap:butt;stroke-linejoin:miter;stroke:rgb(0%,0%,0%);stroke-opacity:1;stroke-miterlimit:10;" d="M 87.011719 224.714844 L 57.695312 215.722656 "/>
<path style="fill:none;stroke-width:1.2;stroke-linecap:butt;stroke-linejoin:miter;stroke:rgb(0%,0%,0%);stroke-opacity:1;stroke-miterlimit:10;" d="M 50.824219 185.835938 L 73.269531 164.941406 "/>
<path style="fill:none;stroke-width:1.2;stroke-linecap:butt;stroke-linejoin:miter;stroke:rgb(0%,0%,0%);stroke-opacity:1;stroke-miterlimit:10;" d="M 73.269531 164.941406 L 102.589844 173.933594 "/>
<path style="fill:none;stroke-width:1.2;stroke-linecap:butt;stroke-linejoin:miter;stroke:rgb(0%,0%,0%);stroke-opacity:1;stroke-miterlimit:10;" d="M 74.085938 172.742188 L 97.539062 179.933594 "/>
<path style="fill:none;stroke-width:1.2;stroke-linecap:butt;stroke-linejoin:miter;stroke:rgb(0%,0%,0%);stroke-opacity:1;stroke-miterlimit:10;" d="M 73.269531 164.941406 L 66.398438 135.058594 "/>
<path style="fill:none;stroke-width:1.2;stroke-linecap:butt;stroke-linejoin:miter;stroke:rgb(0%,0%,0%);stroke-opacity:1;stroke-miterlimit:10;" d="M 102.589844 173.933594 L 109.460938 203.820312 "/>
<path style="fill:none;stroke-width:1.2;stroke-linecap:butt;stroke-linejoin:miter;stroke:rgb(0%,0%,0%);stroke-opacity:1;stroke-miterlimit:10;" d="M 109.460938 203.820312 L 87.011719 224.714844 "/>
<path style="fill:none;stroke-width:1.2;stroke-linecap:butt;stroke-linejoin:miter;stroke:rgb(0%,0%,0%);stroke-opacity:1;stroke-miterlimit:10;" d="M 102.300781 200.628906 L 84.34375 217.34375 "/>
<path style="fill:none;stroke-width:1.2;stroke-linecap:butt;stroke-linejoin:miter;stroke:rgb(0%,0%,0%);stroke-opacity:1;stroke-miterlimit:10;" d="M 67.457031 131.609375 L 52.800781 127.113281 "/>
<path style="fill:none;stroke-width:1.2;stroke-linecap:butt;stroke-linejoin:miter;stroke:rgb(100%,0%,0%);stroke-opacity:1;stroke-miterlimit:10;" d="M 52.800781 127.113281 L 38.140625 122.617188 "/>
<path style="fill:none;stroke-width:1.2;stroke-linecap:butt;stroke-linejoin:miter;stroke:rgb(0%,0%,0%);stroke-opacity:1;stroke-miterlimit:10;" d="M 65.34375 138.507812 L 50.683594 134.011719 "/>
<path style="fill:none;stroke-width:1.2;stroke-linecap:butt;stroke-linejoin:miter;stroke:rgb(100%,0%,0%);stroke-opacity:1;stroke-miterlimit:10;" d="M 50.683594 134.011719 L 36.023438 129.515625 "/>
<path style="fill:none;stroke-width:1.2;stroke-linecap:butt;stroke-linejoin:miter;stroke:rgb(0%,0%,0%);stroke-opacity:1;stroke-miterlimit:10;" d="M 66.398438 135.058594 L 77.625 124.609375 "/>
<path style="fill:none;stroke-width:1.2;stroke-linecap:butt;stroke-linejoin:miter;stroke:rgb(0%,0%,100%);stroke-opacity:1;stroke-miterlimit:10;" d="M 77.625 124.609375 L 88.847656 114.164062 "/>
<path style=" stroke:none;fill-rule:nonzero;fill:rgb(100%,100%,100%);fill-opacity:1;" d="M 27.082031 119.066406 L 37.082031 119.066406 L 37.082031 133.066406 L 27.082031 133.066406 Z M 27.082031 119.066406 "/>
<g style="fill:rgb(100%,0%,0%);fill-opacity:1;">
  <use xlink:href="#glyph0-3" x="27.082031" y="130.205078"/>
</g>
<path style="fill:none;stroke-width:1.2;stroke-linecap:butt;stroke-linejoin:miter;stroke:rgb(0%,0%,100%);stroke-opacity:1;stroke-miterlimit:10;" d="M 88.847656 114.164062 L 85.410156 99.222656 "/>
<path style="fill:none;stroke-width:1.2;stroke-linecap:butt;stroke-linejoin:miter;stroke:rgb(0%,0%,0%);stroke-opacity:1;stroke-miterlimit:10;" d="M 85.410156 99.222656 L 81.976562 84.277344 "/>
<path style="fill:none;stroke-width:1.2;stroke-linecap:butt;stroke-linejoin:miter;stroke:rgb(0%,0%,100%);stroke-opacity:1;stroke-miterlimit:10;" d="M 88.847656 114.164062 L 103.503906 118.660156 "/>
<path style="fill:none;stroke-width:1.2;stroke-linecap:butt;stroke-linejoin:miter;stroke:rgb(0%,0%,0%);stroke-opacity:1;stroke-miterlimit:10;" d="M 103.503906 118.660156 L 118.164062 123.15625 "/>
<path style=" stroke:none;fill-rule:nonzero;fill:rgb(100%,100%,100%);fill-opacity:1;" d="M 84.847656 107.164062 L 93.847656 107.164062 L 93.847656 121.164062 L 84.847656 121.164062 Z M 84.847656 107.164062 "/>
<g style="fill:rgb(0%,0%,100%);fill-opacity:1;">
  <use xlink:href="#glyph0-4" x="84.847656" y="118.302734"/>
</g>
<path style="fill:none;stroke-width:1.2;stroke-linecap:butt;stroke-linejoin:miter;stroke:rgb(0%,0%,0%);stroke-opacity:1;stroke-miterlimit:10;" d="M 81.976562 84.277344 L 104.421875 63.382812 "/>
<path style="fill:none;stroke-width:1.2;stroke-linecap:butt;stroke-linejoin:miter;stroke:rgb(0%,0%,0%);stroke-opacity:1;stroke-miterlimit:10;" d="M 118.164062 123.15625 L 121.597656 138.097656 "/>
<path style="fill:none;stroke-width:1.2;stroke-linecap:butt;stroke-linejoin:miter;stroke:rgb(0%,0%,100%);stroke-opacity:1;stroke-miterlimit:10;" d="M 121.597656 138.097656 L 125.035156 153.042969 "/>
<path style="fill:none;stroke-width:1.2;stroke-linecap:butt;stroke-linejoin:miter;stroke:rgb(0%,0%,0%);stroke-opacity:1;stroke-miterlimit:10;" d="M 125.882812 124.527344 L 128.632812 136.480469 "/>
<path style="fill:none;stroke-width:1.2;stroke-linecap:butt;stroke-linejoin:miter;stroke:rgb(0%,0%,100%);stroke-opacity:1;stroke-miterlimit:10;" d="M 128.632812 136.480469 L 131.378906 148.4375 "/>
<path style="fill:none;stroke-width:1.2;stroke-linecap:butt;stroke-linejoin:miter;stroke:rgb(0%,0%,0%);stroke-opacity:1;stroke-miterlimit:10;" d="M 140.609375 102.261719 L 118.164062 123.15625 "/>
<path style="fill:none;stroke-width:1.2;stroke-linecap:butt;stroke-linejoin:miter;stroke:rgb(0%,0%,100%);stroke-opacity:1;stroke-miterlimit:10;" d="M 125.035156 153.042969 L 139.691406 157.539062 "/>
<path style="fill:none;stroke-width:1.2;stroke-linecap:butt;stroke-linejoin:miter;stroke:rgb(0%,0%,0%);stroke-opacity:1;stroke-miterlimit:10;" d="M 139.691406 157.539062 L 154.351562 162.035156 "/>
<path style=" stroke:none;fill-rule:nonzero;fill:rgb(100%,100%,100%);fill-opacity:1;" d="M 121.035156 146.042969 L 130.035156 146.042969 L 130.035156 160.042969 L 121.035156 160.042969 Z M 121.035156 146.042969 "/>
<g style="fill:rgb(0%,0%,100%);fill-opacity:1;">
  <use xlink:href="#glyph0-4" x="121.035156" y="157.181641"/>
</g>
<path style="fill:none;stroke-width:1.2;stroke-linecap:butt;stroke-linejoin:miter;stroke:rgb(0%,0%,0%);stroke-opacity:1;stroke-miterlimit:10;" d="M 154.351562 162.035156 L 165.574219 151.585938 "/>
<path style="fill:none;stroke-width:1.2;stroke-linecap:butt;stroke-linejoin:miter;stroke:rgb(0%,0%,100%);stroke-opacity:1;stroke-miterlimit:10;" d="M 165.574219 151.585938 L 176.796875 141.140625 "/>
<path style="fill:none;stroke-width:1.2;stroke-linecap:butt;stroke-linejoin:miter;stroke:rgb(0%,0%,0%);stroke-opacity:1;stroke-miterlimit:10;" d="M 151.679688 154.664062 L 160.660156 146.304688 "/>
<path style="fill:none;stroke-width:1.2;stroke-linecap:butt;stroke-linejoin:miter;stroke:rgb(0%,0%,100%);stroke-opacity:1;stroke-miterlimit:10;" d="M 160.660156 146.304688 L 169.636719 137.949219 "/>
<path style="fill:none;stroke-width:1.2;stroke-linecap:butt;stroke-linejoin:miter;stroke:rgb(0%,0%,0%);stroke-opacity:1;stroke-miterlimit:10;" d="M 154.351562 162.035156 L 157.789062 176.976562 "/>
<path style="fill:none;stroke-width:1.2;stroke-linecap:butt;stroke-linejoin:miter;stroke:rgb(0%,0%,100%);stroke-opacity:1;stroke-miterlimit:10;" d="M 157.789062 176.976562 L 161.222656 191.917969 "/>
<path style="fill:none;stroke-width:1.2;stroke-linecap:butt;stroke-linejoin:miter;stroke:rgb(0%,0%,100%);stroke-opacity:1;stroke-miterlimit:10;" d="M 176.796875 141.140625 L 173.363281 126.199219 "/>
<path style="fill:none;stroke-width:1.2;stroke-linecap:butt;stroke-linejoin:miter;stroke:rgb(0%,0%,0%);stroke-opacity:1;stroke-miterlimit:10;" d="M 173.363281 126.199219 L 169.925781 111.253906 "/>
<path style=" stroke:none;fill-rule:nonzero;fill:rgb(100%,100%,100%);fill-opacity:1;" d="M 172.796875 134.140625 L 181.796875 134.140625 L 181.796875 148.140625 L 172.796875 148.140625 Z M 172.796875 134.140625 "/>
<g style="fill:rgb(0%,0%,100%);fill-opacity:1;">
  <use xlink:href="#glyph0-4" x="172.796875" y="145.279297"/>
</g>
<path style="fill:none;stroke-width:1.2;stroke-linecap:butt;stroke-linejoin:miter;stroke:rgb(0%,0%,0%);stroke-opacity:1;stroke-miterlimit:10;" d="M 169.925781 111.253906 L 140.609375 102.261719 "/>
<path style="fill:none;stroke-width:1.2;stroke-linecap:butt;stroke-linejoin:miter;stroke:rgb(0%,0%,0%);stroke-opacity:1;stroke-miterlimit:10;" d="M 164.878906 117.253906 L 141.425781 110.058594 "/>
<path style="fill:none;stroke-width:1;stroke-linecap:butt;stroke-linejoin:miter;stroke:rgb(0%,0%,0%);stroke-opacity:1;stroke-miterlimit:10;" d="M 190.539062 200.910156 L 190.539062 200.910156 M 187.867188 199.546875 L 187.5625 200.542969 M 185.195312 198.183594 L 184.585938 200.175781 M 182.527344 196.816406 L 181.609375 199.808594 M 179.855469 195.453125 L 178.632812 199.441406 M 177.183594 194.089844 L 175.652344 199.074219 M 174.511719 192.722656 L 172.675781 198.703125 M 171.839844 191.359375 L 169.699219 198.335938 M 169.167969 189.992188 L 166.722656 197.96875 M 166.496094 188.628906 L 163.746094 197.601562 M 163.824219 187.265625 L 160.765625 197.234375 M 162.808594 186.746094 L 159.636719 197.09375 "/>
<path style=" stroke:none;fill-rule:nonzero;fill:rgb(100%,100%,100%);fill-opacity:1;" d="M 152.222656 184.917969 L 170.222656 184.917969 L 170.222656 198.917969 L 152.222656 198.917969 Z M 152.222656 184.917969 "/>
<g style="fill:rgb(0%,0%,100%);fill-opacity:1;">
  <use xlink:href="#glyph0-4" x="152.222656" y="196.056641"/>
  <use xlink:href="#glyph0-5" x="161.199219" y="196.056641"/>
</g>
<path style="fill:none;stroke-width:1.2;stroke-linecap:butt;stroke-linejoin:miter;stroke:rgb(0%,0%,0%);stroke-opacity:1;stroke-miterlimit:10;" d="M 190.539062 200.910156 L 197.410156 230.796875 "/>
<path style="fill:none;stroke-width:1.2;stroke-linecap:butt;stroke-linejoin:miter;stroke:rgb(0%,0%,0%);stroke-opacity:1;stroke-miterlimit:10;" d="M 190.539062 200.910156 L 212.988281 180.019531 "/>
<path style="fill:none;stroke-width:1.2;stroke-linecap:butt;stroke-linejoin:miter;stroke:rgb(0%,0%,0%);stroke-opacity:1;stroke-miterlimit:10;" d="M 212.988281 180.019531 L 242.304688 189.011719 "/>
<path style="fill:none;stroke-width:1.2;stroke-linecap:butt;stroke-linejoin:miter;stroke:rgb(0%,0%,0%);stroke-opacity:1;stroke-miterlimit:10;" d="M 218.035156 174.019531 L 241.488281 181.214844 "/>
<path style="fill:none;stroke-width:1.2;stroke-linecap:butt;stroke-linejoin:miter;stroke:rgb(0%,0%,0%);stroke-opacity:1;stroke-miterlimit:10;" d="M 206.117188 150.132812 L 212.988281 180.019531 "/>
<path style="fill:none;stroke-width:1.2;stroke-linecap:butt;stroke-linejoin:miter;stroke:rgb(0%,0%,0%);stroke-opacity:1;stroke-miterlimit:10;" d="M 242.304688 189.011719 L 264.75 168.117188 "/>
<path style="fill:none;stroke-width:1.2;stroke-linecap:butt;stroke-linejoin:miter;stroke:rgb(0%,0%,0%);stroke-opacity:1;stroke-miterlimit:10;" d="M 264.75 168.117188 L 257.878906 138.230469 "/>
<path style="fill:none;stroke-width:1.2;stroke-linecap:butt;stroke-linejoin:miter;stroke:rgb(0%,0%,0%);stroke-opacity:1;stroke-miterlimit:10;" d="M 257.03125 166.746094 L 251.535156 142.835938 "/>
<path style="fill:none;stroke-width:1.2;stroke-linecap:butt;stroke-linejoin:miter;stroke:rgb(0%,0%,0%);stroke-opacity:1;stroke-miterlimit:10;" d="M 257.878906 138.230469 L 228.5625 129.238281 "/>
<path style="fill:none;stroke-width:1.2;stroke-linecap:butt;stroke-linejoin:miter;stroke:rgb(0%,0%,0%);stroke-opacity:1;stroke-miterlimit:10;" d="M 228.5625 129.238281 L 206.117188 150.132812 "/>
<path style="fill:none;stroke-width:1.2;stroke-linecap:butt;stroke-linejoin:miter;stroke:rgb(0%,0%,0%);stroke-opacity:1;stroke-miterlimit:10;" d="M 231.234375 136.609375 L 213.277344 153.324219 "/>
</g>
</svg>

<svg xmlns="http://www.w3.org/2000/svg" xmlns:xlink="http://www.w3.org/1999/xlink" width="300pt" height="300pt" viewBox="0 0 300 300"><defs><symbol overflow="visible"><path d="M.594 2.125V-8.47h6V2.126zm.672-.672h4.671V-7.78h-4.67zm0 0"/></symbol><symbol overflow="visible" id="a"><path d="M7.734-8.078v1.25c-.406-.375-.836-.65-1.28-.828-.45-.188-.93-.282-1.438-.282-1 0-1.766.31-2.297.922-.533.618-.798 1.5-.798 2.657 0 1.15.266 2.028.797 2.64.53.618 1.296.923 2.296.923.507 0 .988-.094 1.437-.28.445-.19.875-.462 1.28-.83V-.67c-.417.28-.858.496-1.327.64-.46.134-.945.204-1.453.204-1.336 0-2.383-.406-3.14-1.22-.762-.81-1.14-1.913-1.14-3.31 0-1.408.378-2.517 1.14-3.33.757-.812 1.804-1.218 3.14-1.218.52 0 1.008.074 1.47.22.468.135.905.338 1.31.608zm0 0"/></symbol><symbol overflow="visible" id="b"><path d="M1.125-9.125h1.078V0H1.125zm0 0"/></symbol><symbol overflow="visible" id="c"><path d="M4.734-7.953c-.867 0-1.554.324-2.062.97-.5.635-.75 1.51-.75 2.624 0 1.094.25 1.965.75 2.61.508.637 1.195.953 2.062.953.852 0 1.532-.316 2.032-.953.507-.645.765-1.516.765-2.61 0-1.113-.257-1.988-.764-2.624-.5-.645-1.18-.97-2.032-.97zm0-.953c1.22 0 2.192.414 2.922 1.234.74.824 1.11 1.93 1.11 3.313 0 1.376-.37 2.477-1.11 3.298C6.926-.24 5.953.17 4.734.17c-1.23 0-2.214-.41-2.953-1.234C1.04-1.882.673-2.984.673-4.36c0-1.382.367-2.488 1.11-3.312.738-.82 1.722-1.234 2.952-1.234zm0 0"/></symbol><symbol overflow="visible" id="d"><path d="M1.172-8.75h1.594l3.89 7.313V-8.75h1.14V0H6.204L2.328-7.313V0H1.172zm0 0"/></symbol><symbol overflow="visible" id="e"><path d="M1.172-8.75H2.36v3.594h4.296V-8.75h1.188V0H6.656v-4.172H2.36V0H1.17zm0 0"/></symbol></defs><g><path fill="#fff" d="M0 0h300v300H0z"/><path d="M35.25 236.617l11.223-10.45" stroke-width="1.2" stroke="#0c0" stroke-miterlimit="10" fill="none"/><path d="M46.473 226.168l11.222-10.445" stroke-width="1.2" stroke="#000" stroke-miterlimit="10" fill="none"/><path d="M23.25 229.617h12v14h-12zm0 0" fill="#fff"/><g fill="#0c0"><use xlink:href="#a" x="23.25" y="240.756"/><use xlink:href="#b" x="31.629" y="240.756"/></g><path d="M57.695 215.723l-6.87-29.887M64.04 211.117l-5.497-23.91M87.012 224.715l-29.317-8.992M50.824 185.836L73.27 164.94M73.27 164.94l29.32 8.994M74.086 172.742l23.453 7.192M73.27 164.94l-6.872-29.88M102.59 173.934l6.87 29.886M109.46 203.82l-22.448 20.895M102.3 200.63l-17.956 16.714M67.457 131.61L52.8 127.112" stroke-width="1.2" stroke="#000" stroke-miterlimit="10" fill="none"/><path d="M52.8 127.113l-14.66-4.496" stroke-width="1.2" stroke="#f00" stroke-miterlimit="10" fill="none"/><path d="M65.344 138.508l-14.66-4.496" stroke-width="1.2" stroke="#000" stroke-miterlimit="10" fill="none"/><path d="M50.684 134.012l-14.66-4.496" stroke-width="1.2" stroke="#f00" stroke-miterlimit="10" fill="none"/><path d="M66.398 135.06l11.227-10.45" stroke-width="1.2" stroke="#000" stroke-miterlimit="10" fill="none"/><path d="M77.625 124.61l11.223-10.446" stroke-width="1.2" stroke="#00f" stroke-miterlimit="10" fill="none"/><path d="M27.082 119.066h10v14h-10zm0 0" fill="#fff"/><use xlink:href="#c" x="27.082" y="130.205" fill="#f00"/><path d="M88.848 114.164l-3.438-14.94" stroke-width="1.2" stroke="#00f" stroke-miterlimit="10" fill="none"/><path d="M85.41 99.223l-3.433-14.946" stroke-width="1.2" stroke="#000" stroke-miterlimit="10" fill="none"/><path d="M88.848 114.164l14.656 4.496" stroke-width="1.2" stroke="#00f" stroke-miterlimit="10" fill="none"/><path d="M103.504 118.66l14.66 4.496" stroke-width="1.2" stroke="#000" stroke-miterlimit="10" fill="none"/><path d="M84.848 107.164h9v14h-9zm0 0" fill="#fff"/><use xlink:href="#d" x="84.848" y="118.303" fill="#00f"/><path d="M81.977 84.277l22.445-20.894M118.164 123.156l3.434 14.942" stroke-width="1.2" stroke="#000" stroke-miterlimit="10" fill="none"/><path d="M121.598 138.098l3.437 14.945" stroke-width="1.2" stroke="#00f" stroke-miterlimit="10" fill="none"/><path d="M125.883 124.527l2.75 11.953" stroke-width="1.2" stroke="#000" stroke-miterlimit="10" fill="none"/><path d="M128.633 136.48l2.746 11.958" stroke-width="1.2" stroke="#00f" stroke-miterlimit="10" fill="none"/><path d="M140.61 102.262l-22.446 20.894" stroke-width="1.2" stroke="#000" stroke-miterlimit="10" fill="none"/><path d="M125.035 153.043l14.656 4.496" stroke-width="1.2" stroke="#00f" stroke-miterlimit="10" fill="none"/><path d="M139.69 157.54l14.662 4.495" stroke-width="1.2" stroke="#000" stroke-miterlimit="10" fill="none"/><path d="M121.035 146.043h9v14h-9zm0 0" fill="#fff"/><use xlink:href="#d" x="121.035" y="157.182" fill="#00f"/><path d="M154.352 162.035l11.222-10.45" stroke-width="1.2" stroke="#000" stroke-miterlimit="10" fill="none"/><path d="M165.574 151.586l11.223-10.445" stroke-width="1.2" stroke="#00f" stroke-miterlimit="10" fill="none"/><path d="M151.68 154.664l8.98-8.36" stroke-width="1.2" stroke="#000" stroke-miterlimit="10" fill="none"/><path d="M160.66 146.305l8.977-8.356" stroke-width="1.2" stroke="#00f" stroke-miterlimit="10" fill="none"/><path d="M154.352 162.035l3.437 14.942" stroke-width="1.2" stroke="#000" stroke-miterlimit="10" fill="none"/><path d="M157.79 176.977l3.433 14.94M176.797 141.14l-3.434-14.94" stroke-width="1.2" stroke="#00f" stroke-miterlimit="10" fill="none"/><path d="M173.363 126.2l-3.437-14.946" stroke-width="1.2" stroke="#000" stroke-miterlimit="10" fill="none"/><path d="M172.797 134.14h9v14h-9zm0 0" fill="#fff"/><use xlink:href="#d" x="172.797" y="145.279" fill="#00f"/><path d="M169.926 111.254l-29.317-8.992M164.88 117.254l-23.454-7.195" stroke-width="1.2" stroke="#000" stroke-miterlimit="10" fill="none"/><path d="M190.54 200.91m-2.673-1.363l-.304.996m-2.368-2.36l-.61 1.993m-2.058-3.36l-.918 2.993m-1.755-4.357l-1.222 3.988m-1.45-5.35l-1.53 4.984m-1.14-6.35l-1.837 5.98m-.836-7.345l-2.14 6.976m-.532-8.344l-2.445 7.977m-.227-9.34l-2.75 8.972m.078-10.336l-3.058 9.968m2.043-10.488l-3.173 10.348" stroke="#000" stroke-miterlimit="10" fill="none"/><path d="M152.223 184.918h18v14h-18zm0 0" fill="#fff"/><g fill="#00f"><use xlink:href="#d" x="152.223" y="196.057"/><use xlink:href="#e" x="161.199" y="196.057"/></g><path d="M190.54 200.91l6.87 29.887M190.54 200.91l22.448-20.89M212.988 180.02l29.317 8.992M218.035 174.02l23.453 7.195M206.117 150.133l6.87 29.887M242.305 189.012l22.445-20.895M264.75 168.117l-6.87-29.887M257.03 166.746l-5.495-23.91M257.88 138.23l-29.317-8.992M228.563 129.238l-22.446 20.895M231.234 136.61l-17.957 16.714" stroke-width="1.2" stroke="#000" stroke-miterlimit="10" fill="none"/></g></svg>
